X: 6362
T: Cashman's Favourite
R: polka
M: 2/4
K: Gmajor
E2|:DB, G,B,|D2 DE|DB, G,B,|A,2 A,>B,|
DB, G,B,|DG G>E|DB, A,B,|G,2 G,2:|
|:B>A GE|DG G>A|B>A GB|A2 A2|
B>A GE|DG G>E|DB, A,B,|G,2 G,2:|

